X:480
T:Wellington's Advance
T:Pilleadh Wellington
R:jig
Z:hn-jig-480
M:6/8
L:1/8
K:Ador
EAA AGA | cBA c2d | efe efg | dBA ~G3 |
EAA AGA | cBA c2d | efe dcB |1 cAA A2G :|2 cAA efg ||
|: age age | aed cBA | BAG ~g3 | dBG GBd |
eaa ~a3 | egg ~g3 | e/f/ge dcB |1 cAA efg :| cAA A2G ||
P:variations
|: EAA AGA | cBA c2d | e=fe e^fg | dBG GAB |
EAA AGA | cBA c2d | e=fe dcB |1 cAA AG=F :|2 cAA efg ||
|: aee aea | ged cBA | BAB gfe | dBG GBd |
eaa aga | egg gag | e=fe dcB |1 cAA efg :| cAA AG=F ||

